src/img/svg/skill-levels.svg

<svg width="32" height="32" viewBox="0 0 32 32" fill="none" xmlns="http://www.w3.org/2000/svg">
<g clip-path="url(#clip0)">
<path d="M6.39648 22.5947C6.65537 22.5947 6.86523 22.3849 6.86523 22.126C6.86523 21.8671 6.65537 21.6572 6.39648 21.6572C6.1376 21.6572 5.92773 21.8671 5.92773 22.126C5.92773 22.3849 6.1376 22.5947 6.39648 22.5947Z" fill="#556695"/>
<path d="M27.5312 10.7969C27.7901 10.7969 28 10.587 28 10.3281V7.51562C28 7.25678 27.7901 7.04688 27.5312 7.04688H23.7813C23.7813 6.78803 23.5714 6.57812 23.3125 6.57812C23.0537 6.57812 22.8438 6.78803 22.8438 7.04688V13.0911L19.3718 18.235L15.7658 16.1514V15.0156H18.5782C18.8371 15.0156 19.047 14.8057 19.047 14.5469V12.2031C19.047 11.9443 18.8371 11.7344 18.5782 11.7344H15.7658C15.7658 11.4755 15.5559 11.2656 15.297 11.2656C15.0381 11.2656 14.8283 11.4755 14.8283 11.7344V16.2884L12.2 20.544L9.15644 18.5147V17.3594H11.5001C11.759 17.3594 11.9689 17.1495 11.9689 16.8906V15.0156C11.9689 14.7568 11.759 14.5469 11.5001 14.5469H9.15644C9.15644 14.288 8.94658 14.0781 8.68769 14.0781C8.42879 14.0781 8.21894 14.288 8.21894 14.5469V18.6213C8.21894 18.6213 7.20203 20.1124 7.19753 20.1189C7.05264 20.3313 7.1094 20.626 7.32076 20.7705C7.53283 20.9154 7.82786 20.8587 7.97233 20.6463L8.81368 19.413C8.81368 19.413 14.0953 22.9498 14.0973 22.9511C14.3022 23.0884 14.6012 23.0422 14.7481 22.8246C14.8928 22.61 14.8361 22.3186 14.6215 22.1739L12.9794 21.0664L15.4562 17.0556C15.4562 17.0556 21.6814 20.6497 21.7046 20.6631C21.9167 20.7855 22.2097 20.7395 22.3506 20.5141C22.4878 20.2945 22.4211 20.0053 22.2015 19.8682L20.1757 18.7192L23.4399 13.8832L27.0625 16.2977V24.4844H5.35586C5.35586 24.4844 5.59436 24.1343 5.59539 24.1328C5.73189 23.9325 5.68333 23.6256 5.47211 23.4813C5.26028 23.3365 4.96529 23.3928 4.82101 23.6045L4.08184 24.6892C3.98336 24.8331 3.97309 25.0183 4.05465 25.172C4.13617 25.3263 4.29465 25.4219 4.46903 25.4219H27.5312C27.7874 25.4219 28 25.2093 28 24.9531V16.0469C28 15.8898 27.9222 15.7441 27.7915 15.6569L23.7813 12.9835V10.7969H27.5312ZM23.7813 7.98438H27.0625V9.85938H23.7813V7.98438ZM15.7658 12.6719H18.1095V14.0781H15.7658V12.6719ZM9.15644 15.4844H11.0314V16.4219H9.15644V15.4844Z" fill="#9C9C9C"/>
</g>
<defs>
<clipPath id="clip0">
<rect x="4" y="4" width="24" height="24" fill="white"/>
</clipPath>
</defs>
</svg>

<svg width="32" height="32" fill="none" xmlns="http://www.w3.org/2000/svg"><g clip-path="url(#clip0)"><path d="M6.396 22.595a.469.469 0 100-.938.469.469 0 000 .938z" fill="#556695"/><path d="M27.531 10.797c.26 0 .469-.21.469-.469V7.516a.469.469 0 00-.469-.47h-3.75a.469.469 0 00-.937 0v6.045l-3.472 5.144-3.606-2.084v-1.135h2.812c.26 0 .469-.21.469-.47v-2.343a.469.469 0 00-.469-.469h-2.812a.469.469 0 00-.938 0v4.554L12.2 20.544l-3.044-2.03V17.36H11.5c.259 0 .469-.21.469-.468v-1.875a.469.469 0 00-.469-.47H9.156a.469.469 0 10-.937 0v4.075L7.198 20.12a.472.472 0 00.123.651.471.471 0 00.651-.124l.842-1.233 5.283 3.538a.475.475 0 00.651-.126.469.469 0 00-.127-.651l-1.642-1.108 2.477-4.01 6.249 3.607a.48.48 0 00.646-.149.469.469 0 00-.15-.646l-2.025-1.149 3.264-4.836 3.622 2.415v8.186H5.357s.238-.35.24-.351a.482.482 0 00-.124-.652.471.471 0 00-.651.123l-.74 1.085a.467.467 0 00.387.733h23.063a.472.472 0 00.469-.469v-8.906a.468.468 0 00-.209-.39l-4.01-2.674v-2.186h3.75zm-3.75-2.813h3.282V9.86H23.78V7.984zm-8.015 4.688h2.344v1.406h-2.344v-1.406zm-6.61 2.812h1.875v.938H9.156v-.938z" fill="#9C9C9C"/></g><defs><clipPath id="clip0"><path fill="#fff" d="M4 4h24v24H4z"/></clipPath></defs></svg>
